X:841
T:Dinny Delaney's
T:The old hag in the kiln
R:Slide
S:John B. Walsh
Z:Transcription:?, rearrangement, chords:Mike Long
M:12/8
L:1/8
K:G
"D"A2D ~D3 "D"A2G "C"EFG|"D"A2D ~D3 "C"G2A GED|\
"D"A2D ~D3 "C"c2d e2d|"Am"dcA AGE "C/G"G2A GED||
"D"A2D ~D3 "D"A2B "C"G2B|"D"A2B "G"G2A "C"E2E GED|\
"D"A2D ~D3 "C"c2d e2d|"Am"dcA AGE "C/G"G2A GED|]
|:"D"dcA AGE "C"c3 ABc|"D"dcA AGE "C/Am"G2A GED|\
"D"dcA AGE "C"c2d e2d|"Am"dcA AGE "C/G"G2A GED:|
